!!!!SEGMENT: pl-wumfc--n48033_joteyko-tadeusz--krol-w-thuli-op-2-no-4-byl-krol-na-thuli-tronie.krn
!!!cenid: 19xx:120
!!!COM: Joteyko, Tadeusz
!!!COM-rismID: pe50046072
!!!CDT: 1872-1932
!!!CNT: Polish
!!!OTL: Król w Thuli Op. 2 No. 4/Był król na Thuli tronie
!!!PDT:
!!!AGN: Secular; Song
!!!YEC: Copyright 2022 Narodowy Instytut Fryderyka Chopina (https://polishscores.org)
!!!YEM: License CC-BY-4.0 (https://creativecommons.org/licenses/by/4.0)
!!!SMS-siglum: PL-Wumfc
!!!SMS-shelfmark: N48033
!!!SMS-variant:
!!!SMS-altvar:
!!!SMS-shelfwork: W
!!!NIFC-rismSourceID: 1001177919
!!!NIFC-rismChildID: 1001177919
!!!NIFC-islandoraID: pl-wumfc:8048
!!!URL-pdf-islandora: https://repozytorium.nifc.pl/islandora/object/pl-wumfc%3A8048/datastream/PDF/view
!!!URL-scan: https://polish.musicsources.pl/pl/lokalizacje/galeria/druki-muzyczne/12519/2 @EN{Scan on Polish Music Sources Website} @PL{Skany w portalu Dziedzictwo Muzyki Polskiej w otwartym dostępie}
!!!IIIF:
!!!ONB-nifc: UWAGA: proszę skorzystać z linka URL pdf-islandora w przypadku błędu na polish.musicsources.pl
!!!OMD: Andante assai sostenuto.
!!!AIN: 1 piano 1 vox
!!!key: b-
**kern	**kern	**dynam	**kern	**text	**text	**dynam
*part2	*part2	*part2	*part1	*part1	*part1	*part1
*staff3	*staff2	*	*staff1	*staff1	*staff1	*
*ICklav	*ICklav	*	*ICvox	*	*	*
*Ipiano	*Ipiano	*	*Ivox	*	*	*
*I"Fortepian.	*I"Fortepian.	*	*I"Śpiew	*	*	*
*clefF4	*clefG2	*	*clefG2	*	*	*
*k[b-e-a-d-g-]	*k[b-e-a-d-g-]	*	*k[b-e-a-d-g-]	*	*	*
*b-:	*b-:	*	*b-:	*	*	*
*M4/4	*M4/4	*	*M4/4	*	*	*
*met(c)	*met(c)	*	*met(c)	*	*	*
*>[A,B,B,C]	*>[A,B,B,C]	*	*>[A,B,B,C]	*	*	*
=1	=1	=1	=1	=1	=1	=1
*>A	*>A	*	*>A	*	*	*
*tremolo	*	*	*	*	*	*
!	!LO:TX:a:B:t=Andante assai sostenuto.	!	!	!	!	!
32BBB-/LLL	1r	pp	1r	.	.	.
32BB-/	.	.	.	.	.	.
32BBB-/	.	.	.	.	.	.
32BB-/	.	.	.	.	.	.
32BBB-/	.	.	.	.	.	.
32BB-/	.	.	.	.	.	.
32BBB-/	.	.	.	.	.	.
32BB-/	.	.	.	.	.	.
32BBB-/	.	.	.	.	.	.
32BB-/	.	.	.	.	.	.
32BBB-/	.	.	.	.	.	.
32BB-/	.	.	.	.	.	.
32BBB-/	.	.	.	.	.	.
32BB-/	.	.	.	.	.	.
32BBB-/	.	.	.	.	.	.
32BB-/	.	.	.	.	.	.
32BBB-/	.	.	.	.	.	.
32BB-/	.	.	.	.	.	.
32BBB-/	.	.	.	.	.	.
32BB-/	.	.	.	.	.	.
32BBB-/	.	.	.	.	.	.
32BB-/	.	.	.	.	.	.
32BBB-/	.	.	.	.	.	.
32BB-/	.	.	.	.	.	.
32BBB-/	.	.	.	.	.	.
32BB-/	.	.	.	.	.	.
32BBB-/	.	.	.	.	.	.
32BB-/	.	.	.	.	.	.
32BBB-/	.	.	.	.	.	.
32BB-/	.	.	.	.	.	.
32BBB-/	.	.	.	.	.	.
32BB-/JJJ	.	.	.	.	.	.
*Xtremolo	*	*	*	*	*	*
=2!|:	=2!|:	=2!|:	=2!|:	=2!|:	=2!|:	=2!|:
*>B	*>B	*	*>B	*	*	*
[1BBB- [<1BB-	(16B-</LL	.	1r	.	.	.
.	16c</	.	.	.	.	.
.	16B-</	.	.	.	.	.
.	16G-</JJ	.	.	.	.	.
.	8B-</)	.	.	.	.	.
.	8r<	.	.	.	.	.
.	(16B-</LL	.	.	.	.	.
.	16c</	.	.	.	.	.
.	16B-</	.	.	.	.	.
.	16G-</JJ	.	.	.	.	.
.	8B-</)	.	.	.	.	.
.	8r<	.	.	.	.	.
=3	=3	=3	=3	=3	=3	=3
1BBB-] 1BB-]	(16B-</LL	.	1r	.	.	.
.	16c</	.	.	.	.	.
.	16B-</	.	.	.	.	.
.	16G-</JJ	.	.	.	.	.
.	16E-</LL	.	.	.	.	.
.	16G-</	.	.	.	.	.
.	16B-</	.	.	.	.	.
.	16c</JJ	.	.	.	.	.
.	16e-/LL	<	.	.	.	.
.	16g-/	.	.	.	.	.
.	16b-/	.	.	.	.	.
.	16cc/JJ	.	.	.	.	.
.	16ee-/LL	.	.	.	.	.
.	16gg-/	.	.	.	.	.
.	16bb-/	.	.	.	.	.
.	16ccc/JJ	[[	.	.	.	.
*clefG2	*	*	*	*	*	*
=4	=4	=4	=4	=4	=4	=4
4r	8eee-\)	.	1r	.	.	.
.	8r	.	.	.	.	.
8.r	8.r	.	.	.	.	.
(16e-'/ 16g- 16an 16cc	(16gg-'\ 16ccc 16eee- 16ggg-	pp	.	.	.	.
8f'/ 8b- 8dd-	8ff'\ 8bb- 8ddd- 8fff	.	.	.	.	.
8r	8r	.	.	.	.	.
8g-'/ 8b- 8dd-	8een'\ 8bb- 8ddd- 8eeen	.	.	.	.	.
8r	8r	.	.	.	.	.
!!LO:LB:g=original
=5	=5	=5	=5	=5	=5	=5
8f'/) 8b- 8dd-	8ff'\) 8bb- 8ddd- 8fff	.	1r	.	.	.
8r	8r	.	.	.	.	.
4r	4r	.	.	.	.	.
*clefF4	*	*	*	*	*	*
8FF'/ 8F	8c'>/ 8e- 8f 8an	.	.	.	.	.
8r	8r	.	.	.	.	.
4r	4r	.	.	.	.	.
=6	=6	=6	=6	=6	=6	=6
*	*^	*	*	*	*	*
2BB-\ 2B-	2d-/ 2f 2b-	2ryy	pp	4b-\	Był	Nad	.
.	.	.	.	8f/	król	mor-	.
.	.	.	.	8b-\	na	-zem	.
4AA-\ 4A-	(8cc/L	4e-\ 4b-	.	8cc\	Thu-	w zam-	.
.	8dd-/	.	.	8dd-\	-li	-ku	.
4GG-/ 4G-	8cc/	4e-\	.	8cc\	tro-	sa-	.
.	8b-/J)	.	.	16b-\	-nie	-li	.
.	.	.	.	16b-\	z wier-	król	.
=7	=7	=7	=7	=7	=7	=7	=7
!	!LO:TX:b:i:t=semplice	!	!	!	!	!	!
8FF/ 8F	8a-/	8e-\L	.	8a-/	-noś-	za-	.
8r	8r	8d-\J	.	8a-/	-ci	-siadł	.
8EE-'>/ 8E-	8c'>/ 8g-	4ryy	.	8g-/	znan	do	.
8r	8r	.	.	8g-/	i	wie-	.
8DD-'>/ 8D-	8d-'>/ 8f	2ryy	.	4f/	cno-	-cze-	.
8r	8r	.	.	.	.	.	.
8CC'>/ 8C	8An'>/ 8e- 8f	.	.	8f/	-ty;	-rzy;	.
8r	8r	.	.	16r	.	.	.
.	.	.	.	16f/	ko-	do-	.
*	*v	*v	*	*	*	*	*
!!LO:LB:g=original
=8	=8	=8	=8	=8	=8	=8
8BBB-'>/ 8BB-	8B-'>/ 8d- 8f	.	8b-\	-chan-	-ko-	.
8r	8r	<	8b-\	-ka	-ła	.
8AAA-'>/ 8AA-	8c'>/ 8e- 8f	.	8cc\	mu	wiel-	.
8r	8r	.	8dd-\	przy	-cy,	.
8GGG-'>/ 8GG-	8B-'>/ 8e- 8b-	[	4ee-\	zgo-	ma-	.
8r	8r	.	.	.	.	.
8EE-/ 8E-	8B-/ 8e- 8g-	.	8g-/	-nie	-li	.
8r	8r	.	16r	.	.	.
.	.	.	16g-/	ros-	i	.
=9	=9	=9	=9	=9	=9	=9
8DD-/L 8D-	8e-/ 8g- 8a-	.	8a-/	-tru-	dziel-	.
8CC/ 8C	8r	.	8a-/	-chan	-nych	.
8BBB-/ 8BB-	8e-/L 8g- 8b-	>	8b-\	da-	tłum	.
8AAA-/J 8AA-	8e-/J 8g- 8cc	.	8cc\	-ła	ry-	.
8DD-/L 8D-	8d-/L 8f 8dd-	.	4dd-\	zło-	-ce-	.
8GG-/J 8G-	8d-/J 8g- 8b-	.	.	.	.	.
8DD-/ 8D-	8d-/ 8f 8dd-	.	8dd-\	-ty.	-rzy.	.
8r	8r	]	8r	.	.	.
=10	=10	=10	=10	=10	=10	=10
*	*^	*	*	*	*	*
8BBB-/ 8BB-	4dd-^/	16r	mf	4dd-\	Nad	On	.
.	.	16d-\LL 16f	.	.	.	.	.
8r	.	16d-\ 16f	.	.	.	.	.
.	.	16d-\JJ 16f	.	.	.	.	.
(8A-\L	(8cc/L	16r	.	8cc\	wszyst-	wstał	.
.	.	16d-\LL 16f	.	.	.	.	.
8G-\J)	8b-/J)	16r	.	8b-\	-ko	bie-	.
.	.	16d-\JJ 16f	.	.	.	.	.
(8F\L	(8f/L	16r	.	8a-/	mu	-siad-	.
.	.	16d-\LL 16f	.	.	.	.	.
8d-\	8ff/	16r	.	8ff\	był	-nik	.
.	.	16f\JJ 16a-	.	.	.	.	.
8c\	8ee-/	16r	.	8ee-\	mi-	sta-	.
.	.	16e-\LL 16a-	.	.	.	.	.
8B-\J)	8dd-/J)	16r	.	8dd-\	-ły,	-ry	.
.	.	16e-\JJ 16a-	.	.	.	.	.
!!LO:PB:g=original
=11	=11	=11	=11	=11	=11	=11	=11
(8E-\L	(8dd-/L	16r	.	8dd-\	wy-	i	.
.	.	16e-\LL 16g-	.	.	.	.	.
16A-\L	16cc/L	16r	.	16cc\	-chy-	wnet	.
16B-\JJ	16dd-/JJ	16e-\JJ 16g-	.	16dd-\	-lał	na	.
8c\L	8ee-/L	16r	.	8ee-\	go	po-	.
.	.	16e-\LL 16g-	.	.	.	.	.
8A-\J	8a-/J	16r	.	8a-/	bez	-żeg-	.
.	.	16e-\JJ 16g-	.	.	.	.	.
!	!	!	!	!	!	!	!LO:DY:a
4d-\)	4ff/)	16r	.	4ff\	mia-	-na-	<
.	.	16f\LL 16a-	<	.	.	.	.
.	.	16f\ 16a-	.	.	.	.	.
.	.	16f\JJ 16a-	.	.	.	.	.
4C^<\ 4c	4ff/	16r	.	8.ff\	-ry,	-nie	.
.	.	16f\LL 16an 16ee-	.	.	.	.	.
.	.	16f\ 16a 16ee-	.	.	.	.	.
.	.	16f\JJ 16a 16ee-	[	16ff\	lecz	wy-	[
=12	=12	=12	=12	=12	=12	=12	=12
!	!	!	!	!	!	!	!LO:DY:a
8BB-^/L 8B-	8f^/L 8ff	16r	f	8ff\	łzy	-chy-	f
.	.	16b-\LL 16dd-	.	.	.	.	.
8EE-^/ 8E-	8g-^/ 8gg-	16r	.	8gg-\	mu	-lił	.
.	.	16b-\JJ 16dd-	.	.	.	.	.
8DD-^/ 8D-	8f^/ 8ff	16r	.	8ff\	o-	wi-	.
.	.	16b-\LL 16dd-	.	.	.	.	.
8CC^/J 8C	8e-^/J 8ee-	16r	.	8ee-\	-czy	-no	.
.	.	16b-\JJ	.	.	.	.	.
4BBB-^/ 4BB-	4d-^/ 4dd-	16r	.	4dd-\	ćmi-	z cza-	.
.	.	16a-\LL	.	.	.	.	.
.	.	16g-\	.	.	.	.	.
.	.	[16f\JJ	.	.	.	.	.
4AAA-^/ 4AA-	8cc-X^/	16f\LL]	.	8.cc-X\	-ły,	-ry	.
.	.	16g-\	.	.	.	.	.
.	8ryy	16f\	.	.	.	.	.
.	.	[<16e-\JJ	.	16cc-\	gdy	i	.
!!LO:LB:g=original
=13	=13	=13	=13	=13	=13	=13	=13
4BBB-^/ 4BB-	4b-^/	16e-\LL]	.	8b-\	us-	rzu-	.
.	.	16f\	.	.	.	.	.
.	.	16e-\	.	8f/	-ty	-cił	.
.	.	16d-\JJ	.	.	.	.	.
4FF^/ 4F	4an^/	16c\LL	.	8cc\	dot-	ją	.
.	.	16e-\	.	.	.	.	.
.	.	16d-\	.	8f/	-knął	w ot-	.
.	.	16c\JJ	.	.	.	.	.
!	!LO:TX:b:i:t=ritard.	!	!	!LO:TX:a:i:t=ritard.	!	!	!
4BBB-^/ 4BB-	4b-^/	8B-\L	>	4b-\	cza-	-chła-	.
.	.	16B-\L	.	.	.	.	.
.	.	16B-\JJ	.	.	.	.	.
(4AA-/ [4BB-	4r	(>16A-\LL	.	8b-\	-ry.	-nie....	.
.	.	16B-\	.	.	.	.	.
.	.	16A-\	.	8r	.	.	.
.	.	16B-\JJ)	]]	.	.	.	.
*	*v	*v	*	*	*	*	*
=14||	=14||	=14||	=14||	=14||	=14||	=14||
*^	*	*	*	*	*	*
!	!	!LO:TX:a:B:t=Meno mosso e misterioso.	!	!LO:TX:a:B:t=Meno mosso e misterioso.	!	!	!LO:DY:a:rj
((2BB-/])	(2GG-\)	((2B-/ 2b-	pp	4b-\	A	A	pp
.	.	.	.	8b-\	gdy	kie-	.
.	.	.	.	8b-\	smierć	-dy	.
2BB-/	4FF\	4B-/ 4a- 4b-	.	8a-/	nad	się	.
.	.	.	.	8b-\	cho-	sta-	.
.	4EE-\))	4B-/)) 4g- 4b-	.	8g-/	-dzi-	-cza-	.
.	.	.	.	8g-/	-ła	-ła	.
*v	*v	*	*	*	*	*	*
!!LO:LB:g=original
=15	=15	=15	=15	=15	=15	=15
(4.DD-/ 4.BB-	(>4.B-/ 4.f	.	8f/	zdał	zam-	.
.	.	.	16d-/	na	-glo-	.
.	.	.	16e-/	mło-	-ny	.
.	.	.	8f/	-de-	wzrok	.
8CC/ 8C	8B-/ 8g-	<	8g-/	-go	w nią	.
8DD-/L 8D-	4B-/ 4f	.	4f/	pa-	wle-	.
8EE-/J 8E-	.	[	.	.	.	.
4FF/) 4F	4An/) 4e- 4f	<	8f/	-na	-pił:	.
!	!	!	!	!	!	!LO:HP:a
.	.	.	16r	.	.	<
.	.	[[	16f/	roz-	śmierć	[[
=16	=16	=16	=16	=16	=16	=16
!	!	!	!	!	!	!LO:DY:a
(8BBB-/L 8BB-	(>8B-/L 8d- 8f	.	8.dd-\	-licz-	w o-	mf
8CC/ 8C	8An/ 8e- 8f	.	.	.	.	.
.	.	.	16cc\	-nych	-czy	.
8DD-/ 8D-	8B-/ 8f	.	8b-\	skar-	mu	.
8DDn/J 8Dn	8B-/J 8a-	.	8a-/	-bów	zaj-	.
!	!	!	!	!	!	!LO:HP:a
[4EE-/ [4E-	(>[4B-/ [4e- 4a-	>	4a-/	si-	-rza-	>
8EE-/]) 8E-]	8B-/])) 8e-] 8g-	.	8g-/	-ła,	-ła....	]
16r;	16r;	]	16r;	.	.	.
!	!	!	!	!	!	!LO:DY:a
16EEn/ 16En	16B-/ 16d- 16g-	ppp	16g-/	prócz	już	ppp
=17	=17	=17	=17	=17	=17	=17
!	!	!	!LO:TX:a:i:t=sotto voce e rit.	!	!	!
8FF/ 8F	8B-/ 8d- 8f	.	8f/	tyl-	kro-	.
8r	8r	.	16f/	-ko	-pli	.
.	.	.	16r	.	.	.
!	!LO:TX:b:i:t=rit.	!	!	!	!	!
8FF/ 8F	8c-X/ 8e- 8f	.	8f/	ros-	od-	.
8r	8r	.	16f/	-tru-	-tąd	.
.	.	.	16r	.	.	.
*tremolo	*	*	*	*	*	*
32BBB-/LLL	[4B-/ [4d- [4f	pp	4f/	-cha-	nie	.
32BB-/	.	.	.	.	.	.
32BBB-/	.	.	.	.	.	.
32BB-/	.	.	.	.	.	.
32BBB-/	.	.	.	.	.	.
32BB-/	.	.	.	.	.	.
32BBB-/	.	.	.	.	.	.
32BB-/	.	.	.	.	.	.
32BBB-/	8B-/] 8d-] 8f]	.	8f/	-na....	pił!...	.
32BB-/	.	.	.	.	.	.
32BBB-/	.	.	.	.	.	.
32BB-/	.	.	.	.	.	.
32BBB-/	8r	.	8r	.	.	.
32BB-/	.	.	.	.	.	.
32BBB-/	.	.	.	.	.	.
32BB-/JJJ	.	.	.	.	.	.
*Xtremolo	*	*	*	*	*	*
!!LO:LB:g=original
=18:|!	=18:|!	=18:|!	=18:|!	=18:|!	=18:|!	=18:|!
*>C	*>C	*	*>C	*	*	*
!	!LO:TX:a:B:t=Tempo I.	!	!LO:TX:a:B:t=Tempo I.	!	!	!
[1BBB- [<1BB-	(16B-</LL	.	1r	.	.	.
.	16c</	.	.	.	.	.
.	16B-</	.	.	.	.	.
.	16G-</JJ	.	.	.	.	.
.	8B-</)	.	.	.	.	.
.	8r<	.	.	.	.	.
.	(16B-</LL	.	.	.	.	.
.	16c</	.	.	.	.	.
.	16B-</	.	.	.	.	.
.	16G-</JJ	.	.	.	.	.
.	8B-</)	.	.	.	.	.
.	8r<	.	.	.	.	.
=19	=19	=19	=19	=19	=19	=19
1BBB-] 1BB-]	(16B-</LL	.	1r	.	.	.
.	16c</	.	.	.	.	.
.	16B-</	.	.	.	.	.
.	16G-</JJ	.	.	.	.	.
.	16E-</LL	.	.	.	.	.
.	16G-</	.	.	.	.	.
.	16B-</	.	.	.	.	.
.	16c</JJ	.	.	.	.	.
.	16e-/LL	<	.	.	.	.
.	16g-/	.	.	.	.	.
.	16b-/	.	.	.	.	.
.	16cc/JJ	.	.	.	.	.
.	16ee-/LL	.	.	.	.	.
.	16gg-/	.	.	.	.	.
.	16bb-/	.	.	.	.	.
.	16ccc/JJ	[[	.	.	.	.
*clefG2	*	*	*	*	*	*
=20	=20	=20	=20	=20	=20	=20
4r	8eee-\)	.	1r	.	.	.
.	8r	.	.	.	.	.
8.r	8.r	.	.	.	.	.
16e-'/ 16g- 16an 16cc	(16gg-'\ 16ccc 16eee- 16ggg-	pp	.	.	.	.
8f'/ 8b- 8dd-	8ff'\ 8bb- 8ddd- 8fff	.	.	.	.	.
8r	8r	.	.	.	.	.
8g-'/ 8b- 8dd-	8een'\ 8bb- 8ddd- 8eeen	.	.	.	.	.
8r	8r	.	.	.	.	.
=21	=21	=21	=21	=21	=21	=21
8f'/ 8b- 8dd-	8ff'\) 8bb- 8ddd- 8fff	.	1r	.	.	.
8r	8r	.	.	.	.	.
4r	4r	.	.	.	.	.
*clefF4	*	*	*	*	*	*
8FF'/ 8F	8c'>/ 8e- 8f 8an	.	.	.	.	.
8r	8r	.	.	.	.	.
4r	4r	.	.	.	.	.
=22	=22	=22	=22	=22	=22	=22
4BBB-'/ 4BB-	4d-'>/ 4f 4b-	pp	2r	.	.	.
4r	4r	.	.	.	.	.
==	==	==	==	==	==	==
*-	*-	*-	*-	*-	*-	*-
!!!system-decoration: s1{(s2,s3)}
!!!RDF**kern: < = below
!!!RDF**kern: > = above
!!!RDF**kern: N = linked
!!!ENC: Anastazja Marusiak
!!!END: 2023-10-19
!!!EED: Marta Chmielewska
!!!EEV: 2023-11-24
